X:1
T: Ann Marie Alacoque
C:Bruce Shawyer
R:Jig
Q:180
K:A
M:6/8
L:1/16
E2|A4c2 e2c2A2|F4A2 c2A2F2|A4c2 e2c2A2|F4f2 f4d2|B4d2 f2d2B2|A4c2 e2c2A2|E4G2 B2G2E2|A6 A4E2|
A4c2 e2c2A2|F4A2 c2A2F2|A4c2 e2c2A2|F4f2 f4d2|B4d2 f2d2B2|A4c2 e2c2A2|E4G2 B2G2E2|A6 A4e2|
a4e2 c2A2c2|f4c2 A2F2A2|a4e2 c2A2c2|f4c2 c4d2|f4d2 B2F2B2|c4e2 a2e2c2|e4g2 e2B2G2|A6 A4e2|
a4e2 c2A2c2|f4c2 A2F2A2|a4e2 c2A2c2|f4c2 c4d2|f4d2 B2F2B2|c4e2 a2e2c2|e4g2 e2B2G2|A6 A4||
